X:1
T:Engelska efter Alfred Pettersson (i A)
R:Engelska
O:Nättraby, Blekinge
Z:Andy Davey, januari 2018
M:2/4
L:1/16
K:A
|: e2fg a4 | c2cd e4 | A2AA c2e2 | B2Bd c2A2 | e2fg a4 | c2cd e4 | A2AA c2e2 |  d2B2 A4 :|
|: c2cd e2e2 | (dc)de f2f2 | c2cd e2ed | B2(Bd) c2A2 | c2cd e2e2 | (dc)de f2f2 | c2cd e2a2 | g2b2 a4 :|

